X:003
T:The Miller's Wedding
T:The Miller's Daughter
B:Cumming's Collection, 1780, via...
B:The Popular Songs and Melodies of Scotland
Z:Nigel Gatherer
M:2/4
L:1/8
K:G
D|G<GG>E|A>GAB|D<DE>D|G3 B|
G<GG>E|A>GAB|D<DE>D|G3 z|]
<end>
<start>
